X:1
T:Judgment Hymn
T:Judgment Hymn
T:H. P. M.
T:Anonymous, 1859
T:Public Domain Courtesy of the Cyber Hymnal™
T:Public Domain Courtesy of the Cyber Hymnal™
C:H. P. M.
Z:Public Domain
Z:Courtesy of the Cyber Hymnal™
%%score ( 1 2 ) ( 3 4 )
L:1/8
Q:1/4=115
M:4/4
K:D
V:1 treble 
V:2 treble 
V:3 bass 
V:4 bass 
V:1
 D2 | [DF]3 [CE] [DF]2 [FA]2 | [FA]4 ([FA]2 D2) | ([DF]4 [CE]2) D2 | [DF]4 [CE]2 D2 | %5
w: 1.~The|judg- ment day is|com- ing, *|com- * ing,|com- ing, The|
w: 2.~I|heard the trump- et|sound- ing, *|sound- * ing,|sound- ing, I|
w: 3.~I|saw the Judge des-|cend- ing,~des- *|cend- * ing,|des- cending, I|
w: 4.~I|heard the wick- ed|wail- ing, *|wail- * ing,|wail- ing, I|
w: 5.~I|heard the right- eous|shout- ing, *|shout- * ing,|shout- ing, I|
 [DF]3 [CE] [DF]2 [FA]2 | [FA]4 [FA]2 [FA]2 | (F3 D) [CE]4 | D6 ||"^Refrain" D[DE] | %10
w: judg- ment day is|com- ing, O|that * great|day!|Let us|
w: heard the trump- et|sound- ing, on|that * great|day.|Let us|
w: saw the Judge des-|cend- ing, on|that * great|day.|Let us|
w: heard the wick- ed|wail- ing, on|that * great|day.|For they|
w: heard the right- eous|shout- ing, on|that * great|day.|For they|
 [DF]3 [CE] [DF]2 [FA][FA] | [FA]4 [FA]2 [FA]2 | [GB]3 [GB] [GB]2 [GB]2 | [FA]4 [FA]2 D[DE] | %14
w: take the wings of the|morn- ing, And|fly a- way to|Je- sus, Let us|
w: take the wings of the|morn- ing, And|fly a- way to|Je- sus, Let us|
w: take the wings of the|morn- ing, And|fly a- way to|Je- sus, Let us|
w: took~not the wings of the|morn- ing, Nor|flew a- way to|Je- sus; For they|
w: took the wings of the|morn- ing, And|flew a- way to|Je- sus; For they|
 [DF]3 [CE] [DF]2 [FA][FA] | [FA]4 [FA]2 [FA]2 | [DF]3 D [CE]2 [CE]2 | D6 |] %18
w: take the wings of the|morn- ing, And|sound the ju- bi-|lee.|
w: take the wings of the|morn- ing, And|sound the ju- bi-|lee.|
w: take the wings of the|morn- ing, And|sound the ju- bi-|lee.|
w: took~not the wings of the|morn- ing, Nor|sang the ju- bi-|lee.|
w: took the wings of the|morn- ing, And|sang the ju- bi-|lee.|
V:2
 D2 | x8 | x6 D2 | x6 D2 | x6 D2 | x8 | x8 | D4 x4 | D6 || D x | x8 | x8 | x8 | x6 D x | x8 | x8 | %16
 x3 D x4 | D6 |] %18
V:3
 [D,F,]2 | [D,A,]3 [A,,A,] [D,A,]2 [D,A,]2 | [D,D]4 ([D,D]2 [D,F,]2) | (A,4 G,2) [D,F,]2 | %4
 [A,,A,]4 [A,,A,]2 [D,F,]2 | [D,A,]3 [A,,A,] [D,A,]2 [D,A,]2 | [D,D]4 [D,D]2 [D,D]2 | %7
 (A,3 F,) [A,,G,]4 | [D,F,]6 || [D,F,][D,G,] | [D,A,]3 [A,,A,] [D,A,]2 [D,D][D,D] | %11
 [D,D]4 [D,D]2 [D,D]2 | [G,D]3 [G,D] [G,D]2 [G,D]2 | [D,D]4 [D,D]2 [D,F,][D,G,] | %14
 [D,A,]3 [A,,A,] [D,A,]2 [D,D][D,D] | [D,D]4 [D,D]2 [D,D]2 | [D,A,]3 [D,F,] [A,,G,]2 [A,,G,]2 | %17
 [D,F,]6 |] %18
V:4
 x2 | x8 | x8 | D,6 x2 | x8 | x8 | x8 | D,4 x4 | x6 || x2 | x8 | x8 | x8 | x8 | x8 | x8 | x8 | %17
 x6 |] %18

